X: 869
T: The clover blossom
C: anon.
O: Ireland
B: Francis O'Neill: "The Dance Music of Ireland" (1907) no. 869
R: Hornpipe
Z: Transcribed by Frank Nordberg - http://www.musicaviva.com
F: http://www.musicaviva.com/abc/tunes/ireland/oneill-1001/oneill-1001-086
9.abc
M: C|
L: 1/8
K: A
(3(efg)|a(ece) Ace(a|f)dBG A2(Bc)|def(e d)cBA|GBAF E2(3(efg)|a(ece) Ace(a
|f)dBG A2(Bc)|df(ed c)ABG|E2A2A2:|
|:(ed)|ceA(e ce)Ae|dfB(f df)Bf|ceA(e ce)Ac|B(AGF) E2(ed)|ceA(e ce)Ac|d(cd
e) fgaf|eae(d c)ABG|E2A2A2:|
W:
W:
W: From Musica Viva - http://www.musicaviva.com
W: the Internet center for free sheet music downloads.


